actions/24/edit-clear-symbolic.svg

<?xml version="1.0" encoding="UTF-8" standalone="no"?>
<svg
   xmlns:dc="http://purl.org/dc/elements/1.1/"
   xmlns:cc="http://creativecommons.org/ns#"
   xmlns:rdf="http://www.w3.org/1999/02/22-rdf-syntax-ns#"
   xmlns:svg="http://www.w3.org/2000/svg"
   xmlns="http://www.w3.org/2000/svg"
   version="1.1"
   width="24"
   height="24"
   id="svg7384">
  <title
     id="title9167">elementary Symbolic Icon Theme</title>
  <defs
     id="defs11" />
  <metadata
     id="metadata90">
    <rdf:RDF>
      <cc:Work
         rdf:about="">
        <dc:format>image/svg+xml</dc:format>
        <dc:type
           rdf:resource="http://purl.org/dc/dcmitype/StillImage" />
        <dc:title>elementary Symbolic Icon Theme</dc:title>
      </cc:Work>
    </rdf:RDF>
  </metadata>
  <path
     d="M 9.7858307,4.01184 A 0.75431065,0.76462433 0 0 0 9.4227057,4.2387931 L 1.8878613,11.955201 a 0.75431065,0.76462433 0 0 0 0.045391,1.089375 l 7.3078913,6.717814 a 0.75431065,0.76462433 0 0 0 0.4992969,0.226953 l 11.4838285,0 a 0.75431065,0.76462433 0 0 0 0.771641,-0.77164 l 0,-14.4342223 A 0.75431065,0.76462433 0 0 0 21.224269,4.01184 l -11.2568758,0 a 0.75431065,0.76462433 0 0 0 -0.09078,0 0.75431065,0.76462433 0 0 0 -0.090781,0 z m 1.9517973,3.2681253 2.632656,2.5418757 2.587266,-2.5418757 2.13336,2.13336 -2.541875,2.5872667 2.541875,2.678047 -2.13336,2.042579 -2.587266,-2.541876 -2.632656,2.541876 -2.0879691,-2.08797 2.5418751,-2.632656 -2.5418751,-2.5872667 2.0879691,-2.13336 z"
     id="path4463"
     style="color:#bebebe;fill:#bebebe;fill-opacity:1;fill-rule:nonzero;stroke:none;stroke-width:1;marker:none;visibility:visible;display:inline;overflow:visible;enable-background:accumulate" />
</svg>

<svg xmlns="http://www.w3.org/2000/svg" viewBox="0 0 24 24"><title>elementary Symbolic Icon Theme</title><path d="M9.786 4.012a.754.765 0 0 0-.363.227l-7.535 7.713a.754.765 0 0 0 .045 1.09L9.24 19.76a.754.765 0 0 0 .5.228h11.485a.754.765 0 0 0 .772-.772V4.783a.754.765 0 0 0-.772-.77H9.967a.754.765 0 0 0-.09 0 .754.765 0 0 0-.09 0zm1.952 3.268l2.632 2.542 2.588-2.542 2.133 2.133L16.55 12l2.54 2.68-2.132 2.04-2.588-2.54-2.632 2.54-2.088-2.087L12.192 12 9.65 9.414l2.088-2.133z" color="#bebebe" fill="#bebebe" overflow="visible"/></svg>
